packages/ui-icons/src/Service-logos/24/OKKO.svg

<svg viewBox="0 0 32 32" fill="none" xmlns="http://www.w3.org/2000/svg">
<path d="M28 16C28 22.6274 22.6274 28 16 28C9.37258 28 4 22.6274 4 16C4 9.37258 9.37258 4 16 4C22.6274 4 28 9.37258 28 16Z" fill="white"/>
<path fill-rule="evenodd" clip-rule="evenodd" d="M3.5 16C3.5 9.09644 9.09644 3.5 16 3.5C22.9036 3.5 28.5 9.09644 28.5 16C28.5 22.9036 22.9036 28.5 16 28.5C9.09644 28.5 3.5 22.9036 3.5 16ZM16 4.5C9.64873 4.5 4.5 9.64873 4.5 16C4.5 22.3513 9.64873 27.5 16 27.5C22.3513 27.5 27.5 22.3513 27.5 16C27.5 9.64873 22.3513 4.5 16 4.5Z" fill="#D8D8D8"/>
<path d="M17.7186 18.0853L17.961 17.7167L19.0071 18.9409H20.4285L18.5787 16.7777L20.2292 14.2737H18.944L17.7186 16.1343V12.6322H16.6625V18.9409H17.7186V18.0853ZM13.6471 18.0853L13.8895 17.7202L14.9356 18.9444H16.357L14.5072 16.7777L16.1577 14.2737H14.8725L13.6471 16.1343V12.6322H12.591V18.9409H13.6471V18.0853ZM19.844 16.5482C19.844 17.901 20.8868 19 22.172 19C23.4572 19 24.5 17.901 24.5 16.5482C24.5 15.1953 23.4572 14.0963 22.172 14.0963C20.8868 14.0963 19.844 15.1918 19.844 16.5482ZM9.82799 14.0963C8.54278 14.0963 7.5 15.1918 7.5 16.5482C7.5 17.901 8.54278 19 9.82799 19C11.1132 19 12.156 17.901 12.156 16.5482C12.1593 15.1918 11.1165 14.0963 9.82799 14.0963ZM9.80807 12.5C9.51582 12.5 9.28004 12.7469 9.28004 13.0564C9.28004 13.3625 9.51582 13.6129 9.80807 13.6129C10.1003 13.6129 10.3361 13.3625 10.3361 13.0564C10.3361 12.7469 10.1003 12.5 9.80807 12.5ZM11.0999 12.5C10.8077 12.5 10.5719 12.7469 10.5719 13.0564C10.5719 13.3625 10.8077 13.6129 11.0999 13.6129C11.3922 13.6129 11.628 13.3625 11.628 13.0564C11.6313 12.7469 11.3922 12.5 11.0999 12.5ZM8.53614 12.5C8.2439 12.5 8.00811 12.7469 8.00811 13.0564C8.00811 13.3625 8.2439 13.6129 8.53614 13.6129C8.82838 13.6129 9.06417 13.3625 9.06417 13.0564C9.06417 12.7469 8.82838 12.5 8.53614 12.5ZM8.55607 16.5482C8.55607 15.8109 9.12727 15.2092 9.82799 15.2092C10.5287 15.2092 11.0999 15.8109 11.0999 16.5482C11.0999 17.2854 10.5287 17.8871 9.82799 17.8871C9.12727 17.8871 8.55607 17.2854 8.55607 16.5482ZM20.9001 16.5482C20.9001 15.8109 21.4713 15.2092 22.172 15.2092C22.8727 15.2092 23.4439 15.8109 23.4439 16.5482C23.4439 17.2854 22.8727 17.8871 22.172 17.8871C21.4713 17.8871 20.9001 17.2854 20.9001 16.5482Z" fill="black"/>
</svg>

<svg viewBox="0 0 32 32" fill="none" xmlns="http://www.w3.org/2000/svg"><path d="M28 16c0 6.627-5.373 12-12 12S4 22.627 4 16 9.373 4 16 4s12 5.373 12 12Z" fill="#fff"/><path fill-rule="evenodd" clip-rule="evenodd" d="M3.5 16C3.5 9.096 9.096 3.5 16 3.5S28.5 9.096 28.5 16 22.904 28.5 16 28.5 3.5 22.904 3.5 16ZM16 4.5C9.649 4.5 4.5 9.649 4.5 16S9.649 27.5 16 27.5 27.5 22.351 27.5 16 22.351 4.5 16 4.5Z" fill="#D8D8D8"/><path d="m17.719 18.085.242-.368 1.046 1.224h1.421l-1.85-2.163 1.651-2.504h-1.285l-1.225 1.86v-3.502h-1.056v6.309h1.056v-.856Zm-4.072 0 .242-.365 1.047 1.224h1.421l-1.85-2.166 1.65-2.504h-1.284l-1.226 1.86v-3.502h-1.056v6.309h1.056v-.856Zm6.197-1.537c0 1.353 1.043 2.452 2.328 2.452s2.328-1.099 2.328-2.452-1.043-2.452-2.328-2.452-2.328 1.096-2.328 2.452ZM9.828 14.096c-1.285 0-2.328 1.096-2.328 2.452C7.5 17.901 8.543 19 9.828 19s2.328-1.099 2.328-2.452c.003-1.356-1.04-2.452-2.328-2.452Zm-.02-1.596a.541.541 0 0 0-.528.556c0 .307.236.557.528.557.292 0 .528-.25.528-.557a.541.541 0 0 0-.528-.556Zm1.292 0a.541.541 0 0 0-.528.556c0 .307.236.557.528.557.292 0 .528-.25.528-.557a.539.539 0 0 0-.528-.556Zm-2.564 0a.541.541 0 0 0-.528.556c0 .307.236.557.528.557.292 0 .528-.25.528-.557a.541.541 0 0 0-.528-.556Zm.02 4.048c0-.737.571-1.339 1.272-1.339.7 0 1.272.602 1.272 1.34 0 .736-.571 1.338-1.272 1.338-.7 0-1.272-.602-1.272-1.339Zm12.344 0c0-.737.571-1.339 1.272-1.339.7 0 1.272.602 1.272 1.34 0 .736-.571 1.338-1.272 1.338-.7 0-1.272-.602-1.272-1.339Z" fill="#000"/></svg>
